static/images/platforms/dark/scala.svg

<svg xmlns="http://www.w3.org/2000/svg" preserveAspectRatio="xMidYMid" viewBox="0 0 256 256"><path d="M0 288v-96c0-3.435 47.207-8.346 101.078-15.999C47.207 168.347 0 163.435 0 160V64c0-8 256-24 256-64v96c0 5.827-5.433 11.145-14.716 16.003C250.567 116.86 256 122.176 256 128v96c0 5.827-5.433 11.145-14.716 16.003C250.567 244.86 256 250.176 256 256v96c0 40-256 56-256 64v-96c0-3.435 47.207-8.346 101.078-15.999C47.207 296.347 0 291.435 0 288Z" style="fill:#e4e4e7" transform="matrix(.59234 0 0 .59234 52.181 4.794)"/><path d="M-.5 288v-96c.058-.375.353-.817.776-1.084.391-.247.978-.503 1.696-.749 1.417-.485 3.503-.996 6.147-1.53 5.278-1.065 12.877-2.242 22.149-3.55 18.539-2.614 41.625-5.483 67.238-9.086-25.613-3.603-48.699-6.473-67.238-9.088-9.272-1.307-16.871-2.485-22.149-3.55-2.644-.534-4.73-1.045-6.147-1.53-.718-.246-1.305-.502-1.696-.748-.423-.268-.718-.71-.776-1.085V64c.071-.424.445-.911.994-1.212.514-.283 1.282-.576 2.236-.864 1.894-.572 4.672-1.18 8.18-1.822 7.009-1.283 17.021-2.722 29.023-4.347 24.002-3.251 55.997-7.25 87.99-12.249 31.992-4.999 63.958-10.992 87.932-18.235 11.981-3.619 21.921-7.533 28.884-11.791C251.674 9.238 255.561 4.836 255.5 0h1v96c-.075 6.006-5.313 11.212-14.153 16.003 9.342 4.9 14.078 9.994 14.153 15.997v96c-.075 6.006-5.313 11.212-14.153 16.003 9.342 4.9 14.078 9.994 14.153 15.997v96c-.061 5.164-4.174 10.012-11.239 14.333-7.037 4.304-17.097 8.265-29.116 11.896-24.026 7.257-56.06 13.264-88.068 18.265-32.007 5.001-64.012 9.002-88.01 12.251-11.998 1.625-21.986 3.061-28.977 4.341-3.492.639-6.214 1.234-8.07 1.795-.921.278-1.591.534-2.045.783-.42.231-.546.26-.475.336l-1-1.077V320c.058-.375.353-.817.776-1.084.391-.247.978-.503 1.696-.749 1.417-.485 3.503-.996 6.147-1.53 5.278-1.065 12.877-2.242 22.149-3.55 18.539-2.614 41.625-5.483 67.238-9.086-25.613-3.603-48.699-6.473-67.238-9.088-9.272-1.307-16.871-2.485-22.149-3.55-2.644-.534-4.73-1.045-6.147-1.53-.718-.246-1.305-.502-1.696-.748-.423-.268-.718-.71-.776-1.085Zm1.31.239c.327.206.807.415 1.486.648 1.375.471 3.397.966 6.021 1.496 5.256 1.061 12.826 2.234 22.09 3.54 18.532 2.614 43.802 5.755 70.741 9.583l3.485.495-3.485.495c-26.939 3.827-52.209 6.968-70.741 9.581-9.264 1.307-16.834 2.48-22.09 3.54-2.624.53-4.647 1.026-6.021 1.496-.679.233-1.159.442-1.486.648-.294.186-.368.185-.31.239v94.784c.514-.281 1.28-.573 2.23-.86 1.894-.572 4.672-1.18 8.18-1.822 7.009-1.283 17.021-2.722 29.023-4.347 24.002-3.251 55.997-7.25 87.99-12.249 31.992-4.999 63.958-10.992 87.932-18.235 11.981-3.619 21.921-7.533 28.884-11.791 6.935-4.242 10.822-8.644 10.761-13.48v-96c.075-5.645-5.224-10.74-14.448-15.554l-.849-.443.849-.443c9.224-4.815 14.523-9.912 14.448-15.56v-96c.075-5.645-5.224-10.74-14.448-15.554l-.849-.443.849-.443c9.224-4.815 14.523-9.912 14.448-15.56V4.302c-1.625 3.563-3.174 5.71-10.239 10.031-7.037 4.304-17.097 8.265-29.116 11.896-24.026 7.257-56.06 13.264-88.068 18.265-32.007 5.001-64.012 9.002-88.01 12.251-11.998 1.625-21.986 3.061-28.977 4.341-3.492.639-6.214 1.234-8.07 1.795-.921.278-1.591.534-2.045.783-.42.231-.546.26-.475.336v96c-.058.054.016.053.31.239.327.206.807.415 1.486.648 1.375.471 3.397.966 6.021 1.496 5.256 1.061 12.826 2.234 22.09 3.54 18.532 2.614 43.802 5.755 70.741 9.583l3.485.495-3.485.495c-26.939 3.827-52.209 6.968-70.741 9.581-9.264 1.307-16.834 2.48-22.09 3.54-2.624.53-4.646 1.026-6.021 1.496-.679.233-1.159.442-1.486.648-.294.186-.368.185-.31.239v96c-.058.054.016.053.31.239Z" style="fill:none" transform="matrix(.59234 0 0 .59234 52.181 4.794)"/></svg>

<?xml version="1.0" encoding="utf-8"?>
<svg preserveAspectRatio="xMidYMid" version="1.1" viewBox="0 0 256 256" xmlns="http://www.w3.org/2000/svg">
  <g transform="matrix(0.592336, 0, 0, 0.592336, 52.180992, 4.794112)">
    <path d="M 0 288 L 0 192 C 0 188.565 47.207 183.654 101.078 176.001 C 47.207 168.347 0 163.435 0 160 L 0 64 C 0 56 256 40 256 0 L 256 96 C 256 101.827 250.567 107.145 241.284 112.003 C 250.567 116.86 256 122.176 256 128 L 256 224 C 256 229.827 250.567 235.145 241.284 240.003 C 250.567 244.86 256 250.176 256 256 L 256 352 C 256 392 0 408 0 416 L 0 320 C 0 316.565 47.207 311.654 101.078 304.001 C 47.207 296.347 0 291.435 0 288 Z" style="fill: rgb(228, 228, 231);"/>
    <path d="M -0.5 288 L -0.5 192 C -0.442 191.625 -0.147 191.183 0.276 190.916 C 0.667 190.669 1.254 190.413 1.972 190.167 C 3.389 189.682 5.475 189.171 8.119 188.637 C 13.397 187.572 20.996 186.395 30.268 185.087 C 48.807 182.473 71.893 179.604 97.506 176.001 C 71.893 172.398 48.807 169.528 30.268 166.913 C 20.996 165.606 13.397 164.428 8.119 163.363 C 5.475 162.829 3.389 162.318 1.972 161.833 C 1.254 161.587 0.667 161.331 0.276 161.085 C -0.147 160.817 -0.442 160.375 -0.5 160 L -0.5 64 C -0.429 63.576 -0.055 63.089 0.494 62.788 C 1.008 62.505 1.776 62.212 2.73 61.924 C 4.624 61.352 7.402 60.744 10.91 60.102 C 17.919 58.819 27.931 57.38 39.933 55.755 C 63.935 52.504 95.93 48.505 127.923 43.506 C 159.915 38.507 191.881 32.514 215.855 25.271 C 227.836 21.652 237.776 17.738 244.739 13.48 C 251.674 9.238 255.561 4.836 255.5 0 L 256.5 0 L 256.5 96 C 256.425 102.006 251.187 107.212 242.347 112.003 C 251.689 116.903 256.425 121.997 256.5 128 L 256.5 224 C 256.425 230.006 251.187 235.212 242.347 240.003 C 251.689 244.903 256.425 249.997 256.5 256 L 256.5 352 C 256.439 357.164 252.326 362.012 245.261 366.333 C 238.224 370.637 228.164 374.598 216.145 378.229 C 192.119 385.486 160.085 391.493 128.077 396.494 C 96.07 401.495 64.065 405.496 40.067 408.745 C 28.069 410.37 18.081 411.806 11.09 413.086 C 7.598 413.725 4.876 414.32 3.02 414.881 C 2.099 415.159 1.429 415.415 0.975 415.664 C 0.555 415.895 0.429 415.924 0.5 416 L -0.5 414.923 L -0.5 320 C -0.442 319.625 -0.147 319.183 0.276 318.916 C 0.667 318.669 1.254 318.413 1.972 318.167 C 3.389 317.682 5.475 317.171 8.119 316.637 C 13.397 315.572 20.996 314.395 30.268 313.087 C 48.807 310.473 71.893 307.604 97.506 304.001 C 71.893 300.398 48.807 297.528 30.268 294.913 C 20.996 293.606 13.397 292.428 8.119 291.363 C 5.475 290.829 3.389 290.318 1.972 289.833 C 1.254 289.587 0.667 289.331 0.276 289.085 C -0.147 288.817 -0.442 288.375 -0.5 288 Z M 0.81 288.239 C 1.137 288.445 1.617 288.654 2.296 288.887 C 3.671 289.358 5.693 289.853 8.317 290.383 C 13.573 291.444 21.143 292.617 30.407 293.923 C 48.939 296.537 74.209 299.678 101.148 303.506 L 104.633 304.001 L 101.148 304.496 C 74.209 308.323 48.939 311.464 30.407 314.077 C 21.143 315.384 13.573 316.557 8.317 317.617 C 5.693 318.147 3.67 318.643 2.296 319.113 C 1.617 319.346 1.137 319.555 0.81 319.761 C 0.516 319.947 0.442 319.946 0.5 320 L 0.5 414.784 C 1.014 414.503 1.78 414.211 2.73 413.924 C 4.624 413.352 7.402 412.744 10.91 412.102 C 17.919 410.819 27.931 409.38 39.933 407.755 C 63.935 404.504 95.93 400.505 127.923 395.506 C 159.915 390.507 191.881 384.514 215.855 377.271 C 227.836 373.652 237.776 369.738 244.739 365.48 C 251.674 361.238 255.561 356.836 255.5 352 L 255.5 256 C 255.575 250.355 250.276 245.26 241.052 240.446 L 240.203 240.003 L 241.052 239.56 C 250.276 234.745 255.575 229.648 255.5 224 L 255.5 128 C 255.575 122.355 250.276 117.26 241.052 112.446 L 240.203 112.003 L 241.052 111.56 C 250.276 106.745 255.575 101.648 255.5 96 L 255.5 4.302 C 253.875 7.865 252.326 10.012 245.261 14.333 C 238.224 18.637 228.164 22.598 216.145 26.229 C 192.119 33.486 160.085 39.493 128.077 44.494 C 96.07 49.495 64.065 53.496 40.067 56.745 C 28.069 58.37 18.081 59.806 11.09 61.086 C 7.598 61.725 4.876 62.32 3.02 62.881 C 2.099 63.159 1.429 63.415 0.975 63.664 C 0.555 63.895 0.429 63.924 0.5 64 L 0.5 160 C 0.442 160.054 0.516 160.053 0.81 160.239 C 1.137 160.445 1.617 160.654 2.296 160.887 C 3.671 161.358 5.693 161.853 8.317 162.383 C 13.573 163.444 21.143 164.617 30.407 165.923 C 48.939 168.537 74.209 171.678 101.148 175.506 L 104.633 176.001 L 101.148 176.496 C 74.209 180.323 48.939 183.464 30.407 186.077 C 21.143 187.384 13.573 188.557 8.317 189.617 C 5.693 190.147 3.671 190.643 2.296 191.113 C 1.617 191.346 1.137 191.555 0.81 191.761 C 0.516 191.947 0.442 191.946 0.5 192 L 0.5 288 C 0.442 288.054 0.516 288.053 0.81 288.239 Z" style="fill: none;"/>
  </g>
</svg>
